X: 11411
T: East Of The Hebrides
R: reel
M: 4/4
K: Dmajor
|:F2AF FEEF|DFFE DB,B,A,|F2AF FEDE|FABd BAA2:|
|:Adef dBBA|BdAd F2ED|Adef dBBA|Bdef baab|
f2ef dBBA|BdAd F2ED|DEFA BAd2|FAAB F2ED:|

